public/images/icon-tent--forest.svg

<svg width="40" height="39" viewBox="0 0 40 39" fill="none" xmlns="http://www.w3.org/2000/svg">
<path d="M26.9531 5.07812L23.2812 9.60938L39.4531 29.4531L40 30.1562V38.5156H0V30.1562L0.546875 29.4531L16.7969 9.60938C13.9844 6.17188 12.1875 4.0625 11.4844 3.20312L15.3906 0C16.1719 1.01562 17.7344 2.89062 20 5.70312C22.2656 2.89062 23.8281 1.01562 24.6875 0L28.5156 3.20312L26.9531 5.07812ZM20 23.5156L11.25 33.5156H28.75L20 23.5156Z" fill="#375519"/>
</svg>

<svg width="40" height="39" viewBox="0 0 40 39" fill="none" xmlns="http://www.w3.org/2000/svg"><path d="M26.953 5.078 23.281 9.61l16.172 19.844.547.703v8.36H0v-8.36l.547-.703L16.797 9.61c-2.813-3.437-4.61-5.546-5.313-6.406L15.391 0c.78 1.016 2.343 2.89 4.609 5.703A314.797 314.797 0 0 1 24.688 0l3.828 3.203-1.563 1.875ZM20 23.516l-8.75 10h17.5l-8.75-10Z" fill="#375519"/></svg>
